X:1
T:I Know He’s Mine
T:I Know He’s Mine
T:Benjamin Franklin Butts
T:Johnson Oatman, 1900
T:Public Domain Courtesy of the Cyber Hymnal™
T:Public Domain Courtesy of the Cyber Hymnal™
C:Benjamin Franklin Butts
Z:Public Domain
Z:Courtesy of the Cyber Hymnal™
%%score ( 1 2 ) ( 3 4 )
L:1/8
Q:1/4=90
M:3/4
K:Bb
V:1 treble 
V:2 treble 
V:3 bass 
V:4 bass 
V:1
 [DF][B,D] [CE] | [DF]3 [Fd] [Ec][DB] | [DF]3 [DB] [CA][DB] | [Ec]3 [Ge] [Fd][Ec] | %4
w: 1.~There’s One a-|bove all earth- ly|friends Whose love all|earth- ly love tran-|
w: 2.~He’s mine be-|cause He died for|me; He saved my|soul, He set me|
w: 3.~He’s mine be-|cause He’s in my|heart, And ne- ver,|ne- ver will we|
w: 4.~Some day up-|on the streets of|gold Mine eyes His|glo- ry shall be-|
 [DB]3 [DF] [B,D][CE] | [DF]3 [DB] [Ec][DB] | [EG]3 [EB] [EA][EG] | [DF]3 [DF] [EG][EA] | [DB]3 || %9
w: scends; It is my|Lord and Christ di-|vine, My Lord, be-|cause I know He’s|mine.|
w: free; With joy I|wor- ship at His|shrine And cry, “Praise|God, I know He’s|mine.”|
w: part; Just as the|branch is to the|vine I’m joined to|Christ: I know He’s|mine.|
w: hold; Then, while His|arms a- round me|twine, I’ll cry for|joy, “I know He’s|mine.”|
[M:4/4]"^Refrain" BAB | (z [Ac])[Ge][Fd] [Ec] x3 | B4- [DB]BAB | z [Ac][Ge][Fd] [Ec] x3 | %13
w: ||||
w: I know He’s|* mine, this friend|* so dear; He lives|* with me, He’s|
w: ||||
w: ||||
 d4- [Fd]F=EF | z [Fd]dc B x3 | z [EG][EB][EA] [EG] x3 | [DF]3 [FB] [EB]2 [EA]2 | [DB]4- [DB] |] %18
w: |||||
w: * ev- er near; Ten|* thou- * sand|* charms a- round|* Him shine, And|best *|
w: |||||
w: |||||
V:2
 x3 | x6 | x6 | x6 | x6 | x6 | x6 | x6 | x3 ||[M:4/4] x3 | c4- A A A x | D D E E x4 | c4- A A A x | %13
 F F F F x4 | d4 F F F x | G4- E E E x | x8 | x5 |] %18
V:3
 [B,,B,][B,,F,] [B,,F,] | [B,,B,]3 [B,,B,] [B,,B,][B,,B,] | [B,,B,]3 [B,,F,] [B,,F,][B,,F,] | %3
w: ~ ~ ~|~ ~ ~ ~|~ ~ ~ ~|
 [F,A,]3 [F,A,] [F,A,][F,A,] | [B,,B,]3 [B,,B,] [B,,F,][B,,F,] | [B,,B,]3 [B,,B,] [B,,B,][B,,B,] | %6
w: ~ ~ ~ ~|~ ~ ~ ~|~ ~ ~ ~|
 [E,B,]3 [E,G,] [E,A,][E,B,] | [F,B,]3 [F,B,] [F,C][F,C] | [B,,B,]3 ||[M:4/4] z3 | %10
w: ~ ~ ~ ~|~ ~ ~ ~|~||
 z [F,C][A,C]C [F,C] z3 | z [B,,F,][B,,G,][B,,G,] [B,,F,] z3 | z [F,C][A,C]C [F,C] z3 | %13
w: I know He’s mine,|this friend so dear,|He lives with me,|
 z [B,,B,][B,,B,][B,,B,] [B,,B,] z3 | z [B,,B,][B,,B,][B,,B,] [B,,B,] z3 | %15
w: He’s ev- er near;|Ten thou- sand charms|
 z [E,B,][E,B,][E,B,] [E,B,][E,G,][E,A,][E,B,] | [F,B,]3 [F,D] [F,C]2 [F,C]2 | [B,,B,]4- [B,,B,] |] %18
w: a- round Him shine * * *|||
V:4
 x3 | x6 | x6 | x6 | x6 | x6 | x6 | x6 | x3 ||[M:4/4] x3 | x3 C x4 | x8 | x3 C x4 | x8 | x8 | x8 | %16
 x8 | x5 |] %18

